!!!OTL: Muma xinli lekaihua
!!!ARE: Asia, China,ÿZhejiang Juxian
!! III, 608
!!!SCT: C2064
!!!YEM: Copyright 1995, estate of Helmut Schaffrath.
**kern
*ICvox
*Ivox
*M2/4
*k[b-e-]
*B-:
{8ddd
8bb-
8.ccc
16ddd
=1
8fff
8ddd
4ccc}
=2
{8ccc
16bb-
16gg
8ccc
8ddd
=3
8bb-
16b-
16gg
4ff}
=4
{8.ff
16gg
8bb-
8ddd
=5
16ccc
16bb-
8gg
8.bb-
16gg}
=6
{8ccc
8ddd
8ff
8gg
=7
8bb-
16bb-
16gg
4ff}
=8
{8ddd
8bb-
8ccc
8ddd
=9
8fff
16fff
16ddd
4ccc}
=10
{8ccc
8bb-
8gg
8bb-
=11
8bb-
16bb-
16gg
4ff}
=12
{8.ff
16gg
8bb-
8ddd
=13
8ccc
8bb-
4gg}
=14
{8ccc
8bb-
8gg
8bb-
=15
8bb-
16bb-
16gg
4ff}
=16
{8ddd
8bb-
8.ccc
16ddd
=17
8fff
8ddd
4ccc}
=18
{8ccc
16bb-
16gg
8ccc
8ddd
=19
8bb-
16bb-
16gg
4ff}
=20
{8.ff
16gg
8bb-
8ddd
=21
16ccc
16bb-
8gg
8.bb-
16gg}
=22
{8.ccc
16ddd
8ff
8gg
=23
8bb-
16bb-
16gg
4ff}
==
!!!AGN: Xiaodiao
!!!AMT: simple duple
!!!AIN: vox
!!!EED: Helmut Schaffrath
!!!EEV: 1.0
*-
